X:18730
T:White Hat. BF12.18
M:4/4
L:1/8
Q:140
S:MS12,J.Wilson,1833,Browne Coll.,Lakes
O:England
A:Lakes
Z:vmp.Chris Partington
K:D
"Strange Key ?"FG|AEAc BAGF|BGBe dcBA|defd gafg|efde cdBc|!
AEAc BAGF|BGBe dcBA|defg adec|d2d2d2::!
a2|f2df dfaf|dfaf bagf|e2Ac ecfd|ecfd gfed|!
d/e/f/g/ af geae|d/e/f/g/ af gebe|fgef dece|d2d2d2:|]


